!! 00053] TT[KA
!! Kassette von Frau Li Wenzhen, Peking - Zum Gesangsheft
!!!OTL: Jian maigeng
!!!ARE: Asia, China,ÿShanxi
!! Ethnic Group: Han
!! MM, Seite 4, 2
!!!SCT: C1262
!!!YEM: Copyright 1995, estate of Helmut Schaffrath.
**kern
*ICvox
*Ivox
*M2/4
*k[b-]
*F:
{8g
8g
8cc
16dd
16ff
=1
8b-
8a
4g
=2
8g
8g
8cc
16dd
16ff
=3
8b-
8a
4g}
=4
{8g
8g
8cc
8dd
=5
8g
8dd
8cc
8b-
=6
8.a
16g
8cc
8g
=7
8f
8e
8d
8c}
=8
{4.cc
8ff
=9
8cc
8b-
8a
8g
=10
8f
4.c}
==
!!!AGN: Xiaodiao. Shenghuo xiaochang
!! Die Stuecke sind meist uebersteuert, also verzerrt.
!!!ONB: ESAC (Essen Associative Code) Database: CHINA
!!!AMT: simple duple
!!!AIN: vox
!!!EED: Helmut Schaffrath
!!!EEV: 1.0
*-
!!!OTL: Maigaodi
!!!ARE: Asia, China,ÿShanxi, Qitai
!! I, 335(2)
!!!SCT: C1442
!!!YEM: Copyright 1995, estate of Helmut Schaffrath.
**kern
*ICvox
*Ivox
*M2/4
*k[b-e-a-]
*E-:
{8cc
16cc
16dd
8g
16g
16b-
=1
8cc
16cc
16dd
8g
8r
=2
8cc
8cc
16g
16b-
16g
16b-
=3
8cc
4.r}
=4
{4r
8cc
8cc
=5
8.b-
16cc
8dd
8ff
=6
16cc
16dd
16cc
16b-
8g
8r}
=7
{8g
16g
16cc
8.e-
16f
=8
8g
16g
16cc
8.e-
16f
=9
8g
8g
8r
16cc
16cc
=10
8g
8g}
{8r
8gg
=11
8ee-
8dd
16cc
16dd
16cc
16g
=12
32bn
16.bn
32bn
16.bn
32bn
16.bn
32bn
16.bn}
=13
{4.r
8dd
=14
4cc
16g
16b-
16g
16f
=15
16g
8g
16c
4c}
==
!!!AGN: Wuge, Yangge, Jinzhong yangge
!!!ONB: ESAC (Essen Associative Code) Database: HUANG
!!!AMT: simple duple
!!!AIN: vox
!!!EED: Helmut Schaffrath
!!!EEV: 1.0
*-
